X:1
T:Defensor noster, adspice
T:Anonymous, c. 1642 Edited by William M. Worden
T:Copyright © 2000 by the Choral Public Domain Library (http://www.cpdl.org) Edition may be freely distributed, duplicated, performed, or recorded.
T:from Caecilia, Monatsschrift für Kirchenmusic 1885 Nr. 1
T:Defensor noster, adspice
T:Copyright © 2000 by the Choral Public Domain Library (http://www.cpdl.org) Edition may be freely distributed, duplicated, performed, or recorded.
T:Copyright © 2000 by the Choral Public Domain Library (http://www.cpdl.org) Edition may be freely distributed, duplicated, performed, or recorded.
C:Anonymous, c. 1642
C:Edited by William M. Worden
Z:Copyright © 2000 by the Choral Public Domain Library (http://www.cpdl.org)
Z:Edition may be freely distributed, duplicated, performed, or recorded.
%%score [ 1 2 3 4 ]
L:1/8
M:2/2
K:C
V:1 treble nm="Soprano" snm="S."
V:2 treble nm="Alto" snm="A."
V:3 treble-8 transpose=-12 nm="Tenor" snm="T."
V:4 bass nm="Bass" snm="B."
V:1
 G4!<)!!<(!!>(! G4 | A4!>)! A2 G2 | G2 ^F2 G4 |!<(! G4!<)! A2 A2 | B4 G2 A2- | A2!>(! G2!>)! ^F4 | %6
w: De- fen-|sor no- ster|ad- spi- ce,|in- si- di-|an- tes re-|* pri me,|
 ^F4 G2!<(! A2!<)! | B2 A2 G4- | G2!>(! G2!>)! ^F4 | ^F4 G2 B2 | A2 G2 G2 ^F2 | G4!f! B4 | %12
w: gu- ber- na|tu- os fa-|* mu- los,|quos san- gui-|ne mer- ca- tus|es, gu-|
 B2 A2 B4 | A4 B2 A2 | A4!p! B4 | A2 G2 ^F2 G2 |"^rit." G6 ^F2 |!>(! G8!>)! |] %18
w: ber- na tu-|os fa- mu-|los, quos|san- gui- ne mer-|ca- tus-|es.|
V:2
 D4!<(! _E>F!<)!!>(! G2 | ^F4!>)! =F2 D2 | _E2 D2 D4 |!<(! D4!<)! F2 E2 | G4 D2 F2- | %5
w: De- fen- * *|sor no- ster|ad- spi- ce,|in- si- di-|an- tes re-|
 F2!>(! D2!>)! D4 | D4 D2!<(! F2!<)! | F2 E2 (_ED D2- | D!>(!C/B,<B,)!>)!C/ D4 | D4 _E2 F2 | %10
w: * pri me,|gu- ber- na|tu- os fa- * *|* * * * mu- los,|quos san- gui-|
 F2 D2 _E2 D2 | D4!f! G4 | F2 F2 D4 | ^F4 G2 E2 | ^F4!p! =F4 | F2 D2 D2 B,2 |"^rit." _E4 D4 | %17
w: ne mer- ca- tus|es, gu-|ber- na tu-|os fa- mu-|los, quos|san- gui- ne mer-|ca- tus|
!>(! D8!>)! |] %18
w: es.|
V:3
 B4!<)!!<(!!>(! c4 | d4!>)! c2 B2 | c2 A2 =B4 |!<(! _B4!<)! c2 c2 | d4 B2 c2- | c2!>(! B2!>)! A4 | %6
w: De- fen-|sor no- ster|ad- spi- ce,|in- si- di-|an- tes re-|* pri me,|
 A4 G2!<(! c2!<)! | d2 c2 (B3 A | G2)!>(! G2!>)! A4 | A4 c2 d2 | c2 B2 c2 A2 | =B4!f! d4 | %12
w: gu- ber- na|tu- os fa- *|* mu- los,|quos san- gui-|ne mer- ca- tus|es, gu-|
 d2 c2 B4 | d4 d2 ^c2 | d4!p! d4 | c2 B2 A2 G2 |"^rit." (c3 B A2) A2 |!>(! =B8!>)! |] %18
w: ber- na tu-|os fa- mu-|los, quos|san- gui- ne mer-|ca- * * tus|es.|
V:4
 G,4!<)!!<(!!>(! _E,4 | D,4!>)! F,2 G,2 | C,2 D,2 G,,4 |!<(! G,4!<)! F,2 A,2 | G,4 G,2 F,2- | %5
w: De- fen-|sor no- ster|ad- spi- ce,|in- si- di-|an- tes re-|
 F,2!>(! G,2!>)! D,4 | D,4 G,2!<(! F,2!<)! | B,,2 F,2 (G,3 F, | _E,2)!>(! E,2!>)! D,4 | %9
w: * pri me,|gu- ber- na|tu- os fa- *|* mu- los,|
 D,4 C,2 B,,2 | F,2 G,2 C,2 D,2 | G,4!f! G,4 | %12
w: quos san- gui-|ne mer- ca- tus|es, gu-|
"^(TEXT: Our defender, behold us, restrain the treacherous ones, govern your servants, whom you bought by blood.)" B,2 F,2 G,4 | %13
w: ber- na tu-|
 D,4 G,,2 A,,2 | C,4!p! B,,4 | F,2 G,2 D,2 _E,2 |"^rit." C,4 D,4 |!>(! G,,8!>)! |] %18
w: os fa- mu-|los, quos|san- gui- ne mer-|ca- tus|es.|

